packages/kaspersky-hexa-ui-icons/src/iconsSVGs/16x12/FlagCaf.svg

<svg width="16" height="12" viewBox="0 0 16 12" fill="none" xmlns="http://www.w3.org/2000/svg">
<g clip-path="url(#clip0_41818_4380)">
<rect width="16" height="12" rx="2" fill="white"/>
<mask id="mask0_41818_4380" style="mask-type:luminance" maskUnits="userSpaceOnUse" x="0" y="0" width="16" height="12">
<rect width="16" height="12" rx="2" fill="white"/>
</mask>
<g mask="url(#mask0_41818_4380)">
<rect width="16" height="12" fill="#19BFBF"/>
<path fill-rule="evenodd" clip-rule="evenodd" d="M4.60077 3.6707C4.58238 3.56285 4.6181 3.45284 4.69633 3.37635L5.99806 2.1036C6.06035 2.0427 6.14399 2.00861 6.2311 2.00861H7.03415C7.15932 2.00861 7.27394 2.07873 7.33093 2.19017L7.52618 2.57198C7.58317 2.68342 7.69779 2.75355 7.82296 2.75355H8.93891C9.06408 2.75355 9.1787 2.82367 9.23569 2.93511L10.1928 4.8068C10.2498 4.91824 10.3645 4.98836 10.4896 4.98836H10.7528C11.0291 4.98836 11.1854 5.30531 11.0172 5.52458L10.3042 6.45416C10.2919 6.47018 10.2811 6.48729 10.2719 6.50527L9.9413 7.1517C9.91727 7.19868 9.90474 7.2507 9.90474 7.30347V7.88784C9.90474 7.94061 9.89222 7.99262 9.86819 8.03961L9.52379 8.71306L9.14284 9.458L8.85474 10.0214C8.79775 10.1328 8.68313 10.2029 8.55796 10.2029H8.20391C8.07874 10.2029 7.96412 10.1328 7.90713 10.0214L7.65559 9.52948C7.63156 9.4825 7.61903 9.43049 7.61903 9.37772V7.36346C7.61903 7.27375 7.58287 7.18783 7.51873 7.12512L7.2949 6.90627C7.25754 6.86975 7.22929 6.82495 7.21243 6.77549L6.9341 5.95907C6.88807 5.82406 6.76124 5.7333 6.61859 5.7333H5.23368C5.0712 5.7333 4.93239 5.61615 4.90509 5.45598L4.60077 3.6707Z" fill="white"/>
<path fill-rule="evenodd" clip-rule="evenodd" d="M10.6666 8.33333C10.6666 8.14924 10.8159 8 11 8H11.0952C11.2793 8 11.4285 8.14924 11.4285 8.33333V8.72469C11.4285 8.77427 11.4175 8.82323 11.3962 8.868L11.111 9.46688C11.0722 9.5482 10.9902 9.6 10.9001 9.6C10.7712 9.6 10.6666 9.49545 10.6666 9.36649V8.33333Z" fill="white"/>
</g>
</g>
<defs>
<clipPath id="clip0_41818_4380">
<rect width="16" height="12" fill="white"/>
</clipPath>
</defs>
</svg>

<svg xmlns="http://www.w3.org/2000/svg" width="16" height="12" fill="none" viewBox="0 0 16 12"><g clip-path="url(#a)"><rect width="16" height="12" fill="#fff" rx="2"/><mask id="b" width="16" height="12" x="0" y="0" maskUnits="userSpaceOnUse" style="mask-type:luminance"><rect width="16" height="12" fill="#fff" rx="2"/></mask><g mask="url(#b)"><path fill="#19bfbf" d="M0 0h16v12H0z"/><path fill="#fff" fill-rule="evenodd" d="M4.601 3.671a.333.333 0 0 1 .096-.294l1.302-1.273a.333.333 0 0 1 .233-.095h.803a.333.333 0 0 1 .297.182l.195.382a.333.333 0 0 0 .297.182H8.94a.333.333 0 0 1 .297.182l.957 1.872a.334.334 0 0 0 .297.182h.263c.276 0 .433.317.264.536l-.713.93a.33.33 0 0 0-.032.051l-.331.647a.33.33 0 0 0-.037.152v.584a.33.33 0 0 1-.036.152l-.344.674-.381.745-.288.563a.333.333 0 0 1-.297.182h-.354a.333.333 0 0 1-.297-.181l-.251-.492a.33.33 0 0 1-.037-.152V7.364a.333.333 0 0 0-.1-.238l-.224-.219a.33.33 0 0 1-.082-.131l-.278-.816a.333.333 0 0 0-.315-.226H5.236a.333.333 0 0 1-.328-.277zm6.066 4.662c0-.184.149-.333.333-.333h.095a.333.333 0 0 1 .333.333v.391a.33.33 0 0 1-.032.143l-.285.599a.234.234 0 0 1-.444-.1z" clip-rule="evenodd"/></g></g><defs><clipPath id="a"><path fill="#fff" d="M0 0h16v12H0z"/></clipPath></defs></svg>
